icons/1_Primary/Planning Center.svg

<svg xmlns="http://www.w3.org/2000/svg" width="1024" height="1024" fill="none">
   <g clip-path="url(#a)">
      <path fill="#728DBE" d="M512 1024c282.77 0 512-229.23 512-512S794.77 0 512 0 0 229.23 0 512s229.23 512 512 512Z"/>
      <path fill="#fff" d="M510.93 250.26c-14.18 0-28.57 2.12-42.95 6.35l-155.74 47.4c-35.55 11.85-59.25 44.01-59.25 81.25v253.92c0 37.24 23.7 69.4 59.25 81.25l157.43 47.4c27.08 8.46 55.86 8.46 84.64 0l157.43-47.4c35.55-11.85 59.25-44.01 59.25-81.25V385.26c-1.69-37.24-27.08-69.4-60.94-81.25l-157.43-47.4a139.308 139.308 0 0 0-41.68-6.35h-.01Zm102.93 150.3c15.7-.26 30.17 13.26 30.17 30.4v130.35c0 10.16-6.77 18.62-15.23 22.01l-104.95 32.16c-8.46 3.39-18.62 3.39-27.09 0l-67.71-20.31s-1.69 0-1.69 1.69v50.78c0 5.08-5.08 8.46-10.16 6.77l-35.55-10.16c-3.38-1.69-5.08-5.08-5.08-8.46V429.27c0-18.62 18.62-32.16 37.24-27.08l91.41 27.08c3.39 1.69 6.77 0 8.46 0l91.41-27.08c2.81-1.03 5.77-1.58 8.77-1.63Zm-179.74 55.8c-1.69 0-5.08 1.69-5.08 3.39v76.17c0 1.69 1.69 3.39 3.39 5.08l72.79 22c3.39 1.69 8.46 1.69 11.85 0l72.79-22.01c1.69 0 3.38-1.69 3.38-5.08v-74.48c0-1.69-1.69-3.39-5.08-3.39l-59.25 16.93c-11.85 3.39-23.7 3.39-35.55 0l-59.25-18.62.01.01Z"/>
   </g>
   <defs>
      <clipPath id="a">
         <path fill="#fff" d="M0 0h1024v1024H0z"/>
      </clipPath>
   </defs>
</svg>

<svg width="1024" height="1024" viewBox="0 0 1024 1024" fill="none" xmlns="http://www.w3.org/2000/svg">
<g clip-path="url(#clip0_2_3150)">
<path d="M512 1024C794.77 1024 1024 794.77 1024 512C1024 229.23 794.77 0 512 0C229.23 0 0 229.23 0 512C0 794.77 229.23 1024 512 1024Z" fill="#728DBE"/>
<path d="M510.93 250.26C496.75 250.26 482.36 252.38 467.98 256.61L312.24 304.01C276.69 315.86 252.99 348.02 252.99 385.26V639.18C252.99 676.42 276.69 708.58 312.24 720.43L469.67 767.83C496.75 776.29 525.53 776.29 554.31 767.83L711.74 720.43C747.29 708.58 770.99 676.42 770.99 639.18V385.26C769.3 348.02 743.91 315.86 710.05 304.01L552.62 256.61C539.13 252.391 525.075 250.25 510.94 250.26H510.93ZM613.86 400.56C629.56 400.3 644.03 413.82 644.03 430.96V561.31C644.03 571.47 637.26 579.93 628.8 583.32L523.85 615.48C515.39 618.87 505.23 618.87 496.76 615.48L429.05 595.17C429.05 595.17 427.36 595.17 427.36 596.86V647.64C427.36 652.72 422.28 656.1 417.2 654.41L381.65 644.25C378.27 642.56 376.57 639.17 376.57 635.79V429.27C376.57 410.65 395.19 397.11 413.81 402.19L505.22 429.27C508.61 430.96 511.99 429.27 513.68 429.27L605.09 402.19C607.9 401.16 610.86 400.61 613.86 400.56ZM434.12 456.36C432.43 456.36 429.04 458.05 429.04 459.75V535.92C429.04 537.61 430.73 539.31 432.43 541L505.22 563C508.61 564.69 513.68 564.69 517.07 563L589.86 540.99C591.55 540.99 593.24 539.3 593.24 535.91V461.43C593.24 459.74 591.55 458.04 588.16 458.04L528.91 474.97C517.06 478.36 505.21 478.36 493.36 474.97L434.11 456.35L434.12 456.36Z" fill="white"/>
</g>
<defs>
<clipPath id="clip0_2_3150">
<rect width="1024" height="1024" fill="white"/>
</clipPath>
</defs>
</svg>
